app/dist/common/images/research-solutions.svg

<svg height="18" viewBox="0 0 18 18" width="18" xmlns="http://www.w3.org/2000/svg"><path d="m0 0h18v18h-18z" fill="#f0f3fa"/><g fill="#f57e22"><path d="m10.47 11c-.53 0-1.1-.13-1.47-.43l.3-.54a2 2 0 0 0 1.2.4c.56 0 .75-.27.75-.57 0-.33-.44-.5-.78-.57-.75-.2-1.47-.5-1.47-1.15 0-.68.67-1.14 1.6-1.14.44 0 .9.11 1.25.34l-.35.54c-.34-.21-.68-.3-1-.3-.56 0-.75.26-.75.56 0 .33.6.5.94.57.75.19 1.31.44 1.31 1.1 0 .68-.62 1.19-1.53 1.19z"/><path d="m9 13.59a4.59 4.59 0 1 0 0-9.19 4.59 4.59 0 0 0 0 9.18zm0 1.41a6 6 0 1 0 0-12 6 6 0 0 0 0 12z" fill-rule="evenodd"/><path d="m8.8 7h-.8v4h.8zm-2.6 1.29c0-.67.7-1.21 1.6-1.28v.58c-.46.06-.8.35-.8.7 0 .34.34.63.8.7v.57h-.01l.01.01-.8 1.43h-1l1.05-1.62c-.51-.23-.85-.63-.85-1.1z"/></g></svg>

<!-- by TradingView --><svg width="18" height="18" viewBox="0 0 18 18" xmlns="http://www.w3.org/2000/svg"><path fill="#F0F3FA" d="M0 0h18v18H0z"/><path d="M10.47 11c-.53 0-1.1-.13-1.47-.43l.3-.54a2 2 0 0 0 1.2.4c.56 0 .75-.27.75-.57 0-.33-.44-.5-.78-.57C9.72 9.09 9 8.79 9 8.14 9 7.46 9.67 7 10.6 7c.44 0 .9.11 1.25.34l-.35.54c-.34-.21-.68-.3-1-.3-.56 0-.75.26-.75.56 0 .33.6.5.94.57.75.19 1.31.44 1.31 1.1 0 .68-.62 1.19-1.53 1.19Z" fill="#F57E22"/><path fill-rule="evenodd" d="M9 13.59A4.59 4.59 0 1 0 9 4.4a4.59 4.59 0 0 0 0 9.18ZM9 15A6 6 0 1 0 9 3a6 6 0 0 0 0 12Z" fill="#F57E22"/><path d="M8.8 7H8v4h.8V7ZM6.2 8.29c0-.67.7-1.21 1.6-1.28v.58c-.46.06-.8.35-.8.7 0 .34.34.63.8.7v.57h-.01l.01.01L7 11H6l1.05-1.62c-.51-.23-.85-.63-.85-1.1Z" fill="#F57E22"/></svg>
